X: 24
T: Rolling In The Ryegrass
Z: UPipes & harp
S: https://thesession.org/tunes/87#setting49901
R: reel
M: 4/4
L: 1/8
K: Dmaj
|ABAF DFAF|~G2 BG dGBG|ABAF DFAF|GBAF EF D2|
ABAF DFAF|~G2 BG dGBG|ABAF DFAF|GBAG FD D2|
|ABde f2 fd|g2 ge fedB|ABde fefg|afdf e2 dB|
ABde f2 fd|g2 ge fedB|ABde fefg|afdf efdB|

